X:1
T:#
%%score { 1 | 2 } 3 4
L:1/8
Q:1/4=130
M:4/4
K:F
V:1 treble nm="Soprano I" snm="S"
V:2 treble 
V:3 treble nm="Tenor" snm="T"
V:4 treble nm="Bass" snm="B"
V:1
"^Dixit Dominus""^Bernardino Nanino\n(1560-1623)""^Psalm 110" F2 G2 F2 B2 B2 B2 B2 B2 B2 B2 c2 c2 B4 | %1
w: Di- xit * * Do- mi- nus Do- mi- no me- o: *|
[Q:1/4=170][Q:1/4=170][Q:1/4=170] z8 d8 | d4 d4 c6 B2 | A8 A8 | B8 B4 B4 | (B12 A2 G2 | %6
w: Se-|de a dex- tris|me- is,|se- de a|dex\- * *|
 A4) F4 (G4 A4- | A2 G2 G8 ^F4) | !fermata!G16 || %9
w: * tris me\- *||is.|
[Q:1/4=130][Q:1/4=130][Q:1/4=130] F2 G2 F2 B8 c2 B4 |[Q:1/4=170][Q:1/4=170][Q:1/4=170] z16 | %11
w: do- nec po- nam~inimicos~tuos~scabellum~pedum~tu- o- rum.||
 G4 G2 G2 B4 A4 | G8 D4 d4 | d2 d2 c8 B4 |[M:4/2] A16 | A4 ^F4 G4 A4 | B6 B2 B4 c4 | (d6 cB c8) | %18
w: Vir- gam vir- tu- tis|tu- ae, vir-|gam vir- tu- tis|tu-|ae e- mit- tet|Do- mi- nus ex|Si\- * * *|
 d8 z4 B4- | B2 B2 A4 B4 B4 | c6 c2 c8 | z2 F2 G2 A2 B4 A2 D2 | E2 F2 G4 ^F2 G2 A4 | B4 d6 d2 c4 | %24
w: on: do\-|* mi- na- re in|me- di- o|i- ni- mi- co- rum, i-|ni- mi- co- rum tu- o-|rum, do- mi- na-|
 c4 B4 A6 A2 | A4 z2 A2 A2 A2 G4 | (F3 G A2 GF G2) A2 B4 | A4 z2 A2 B2 c2 d4 | c4 (_e4 d3 c B2 AG | %29
w: re in me- di-|o i- ni- mi- co-|rum * * * * * tu- o-|rum, i- ni- mi- co-|rum tu- o\- * * * *|
 ^F2 G4 F2) !fermata!G16 ||[Q:1/4=130][Q:1/4=130][Q:1/4=130] F2 G2 F2 B8 c2 B4 | B8 A2 B2 G2 F4 | %32
w: * * * rum.|Te- cum prin- cipium~in~die~virtutis tu- ae:|in~splendoribus~sanctorum~ex~utero~ante~luciferum ge- nu- i te.|
[M:4/2][Q:1/4=170][Q:1/4=170][Q:1/4=170] z4 d4 c4 A4 | (B6 AG F2 G2 A4- | A2 G2 G8) ^F4 | %35
w: Ju- ra- vit|Do\- * * * * *|* * * mi-|
 G8 z4 A4 | c4 c4 d6 d2 | ^c16 | z16 | z4 A6 A2 A2 A2 | B4 G4 (A6 G2 | F8 G6 AB | c16) | c16 || %44
w: nus, ju-|ra- vit Do- mi-|nus||et non poe- ni-|te- bit e\- *|||um:|
[M:3/1][Q:1/4=340] A8 c8 B8 | A16 A8 | G8 A8 D8 | G16 G8 | G16 A8 | B24 || x24 |[M:4/2] A8 z4 d4 | %52
w: Tu es sa-|cer- dos,|tu es sa-|cer- dos|in ae-|ter-||num se-|
 c4 B4 B4 A4 | (B6 c2 d4) d4 | (c2 B2 B2 AG A6) A2 | B8 z4 A4 | G4 F4 (B6 A2 | G4) G4 A8 | %58
w: cun- dum or- di-|nem * * Mel-|chi\- * * * * * se-|dech, se-|cun- dum or\- *|* di- nem|
 z4 c4 (B6 AG | A12) A4 | !fermata!=B16 ||[Q:1/4=130][Q:1/4=130][Q:1/4=130] F2 G2 F2 B8 c2 B4 | %62
w: Mel- chi\- * *|* se-|dech.|Do- mi- nus a~dextris tu- is:|
 B8 A2 B2 G2 F4 |[Q:1/4=170][Q:1/4=170][Q:1/4=170] (G6 A2 B4) A4 | c8 A4 D4 | (F2 ED E2 F2 G4) A4 | %66
w: confregit~in~die~irae su- ae re- ges.|Ju\- * * di-|ca- bit in|na\- * * * * * ti-|
 B6 B2 A4 z2 A2 |[M:4/2] B4 A2 d2 c8 | c8 z2 G2 B4 | A2 d2 c4 d8 | z2 B4 G2 c4 A4 | B3 A G4 z4 F4 | %72
w: o- ni- bus, im-|ple- bit ru- i-|nas, im- ple-|bit ru- i- nas:|con- quas- sa- bit|ca- pi- ta, con-|
 D2 G4 E2 (^F2 G4) F2 | G8 z4 A4 | B4 G2 G2 A8 | A4 A4 F8 | G4 B8 (A4- | A2 G2 G8 ^F4) | %78
w: quas- sa- bit ca\- * pi-|ta in|ter- ra mul- to-|rum, in ter-|ra mul- to\-||
 !fermata!G16 ||[Q:1/4=130][Q:1/4=130][Q:1/4=130] F2 G2 F2 B8 c2 B4 | B8 A2 B2 G2 F4 | %81
w: rum.|De tor- ren- te~in~via bi- bet:|propterea~exal- ta- bit ca- put.|
[Q:1/4=170][Q:1/4=170][Q:1/4=170] B12 A4 | A8 (d8- | d4 c2 B2 c8) | d8 A8 | (B16 | c12) c4 | %87
w: Glo- ri-|a Pa\-||tri, et|Fi\-|* li-|
 d8 z4 B4- | B4 A4 A4 G4 |[M:4/2] (A2 G2 F2 G2 A2 B2 c4) | G8 A8 | A4 d8 c4 | B4 B2 B2 A8 | %93
w: o, et|* Spi- ri- tu-|i * * * * * *|san\- *|cto, et Spi-|ri- tu- i san-|
 !fermata!=B16 ||[Q:1/4=130][Q:1/4=130][Q:1/4=130] F2 G2 F2 B8 c2 B4 | B8 A2 B2 G2 F4 | %96
w: cto.|Si- cut e- rat~in~principio,~et~nunc,~et sem- per,|et~in~saecula~saecu- lo- rum. A- men.|
V:2
 x28 | B8 B4 B4 | B12 A4 | (F4 G8 ^F4) | (G6 =FE D8) | d8 d4 d4 | c16 | B8 A8 | !fermata!=B16 || %9
w: |Se- de a|dex- tris|me\- * *|is, * * *|se- de a|dex-|tris me-|is.|
 x20 | G4 G2 G2 B4 A4- | A4 (G6 ^F2 F2 GA | B12) A4 | z4 A4 A2 A2 G4- |[M:4/2] G4 F4 E8 | %15
w: |Vir- gam vir- tu- tis|* tu\- * * * *|* ae,|vir- gam vir- tu\-|* tis tu-|
 ^F4 A4 B4 c4 | d6 d2 d4 c4- | c4 (B6 AG A4) | B8 z4 d4- | d2 d2 c4 c4 B4 | A6 A2 A8 | %21
w: ae e- mit- tet|Do- mi- nus ex|* Si\- * * *|on: do\-|* mi- na- re in|me- di- o|
 z2 A2 B2 c2 d4 c2 F2 | G2 A2 B4 A2 G2 (G2 ^F2) | G4 B6 B2 A4 | B4 B4 c6 c2 | c4 z2 c2 c2 c2 B4 | %26
w: i- ni- mi- co- rum, i-|ni- mi- co- rum tu- o\- *|rum, do- mi- na-|re in me- di-|o i- ni- mi- co-|
 (A3 B c2 BA B2) A2 (A2 G2) | A4 z2 F2 G2 A2 B4 | A4 c4 (B3 c d4- | d2 cB A4) !fermata!=B16 || %30
w: rum * * * * * tu- o\- *|rum, i- ni- mi- co-|rum tu- o\- * *|* * * * rum.|
 x20 | x18 |[M:4/2] z16 | z16 | z4 d4 c4 A4 | (B8 A6 GF | G2 E2 A8) G4 | A8 z4 A4- | %38
w: ||||Ju- ra- vit|Do\- * * *|* * * mi-|nus et|
 A2 A2 A2 A2 F4 G4 | E8 D8 | z8 z4 A4- | A2 A2 A2 A2 B4 G4 | (A8 G8) | A16 ||[M:3/1] c8 A8 B8 | %45
w: * non poe- ni- te- bit|e- um,|et|* non poe- ni- te- bit|e\- *|um:|Tu es sa-|
 c16 c8 | c8 c8 d8 | c16 c8 | B16 A8 | G24 || x24 |[M:4/2] ^F8 z4 B4 | A4 B4 c6 c2 | d8 z4 B4 | %54
w: cer- dos,|tu es sa-|cer- dos|in ae-|ter-||num se-|cun- dum or- di-|nem Mel-|
 (A2 G2 G8) ^F4 | G8 z8 | z4 A4 G4 F4 | F4 E4 F4 c4 | (B4 A6 G2 G4- | G4 ^F2 E2 F4) F4 | %60
w: chi\- * * se-|dech,|se- cun- dum|or- di- nem Mel-|chi\- * * *|* * * * se-|
 !fermata!G16 || x20 | x18 | (B6 A2 G4) ^F4 | G8 ^F8 | z4 A4 B4 A4 | G6 G2 ^F4 z4 | %67
w: dech.|||Ju\- * * di-|ca- bit|in na- ti-|o- ni- bus,|
[M:4/2] z2 D2 F4 E2 A2 G4 | A2 F2 A4 G6 D2- | D2 (B4 A2) B4 z2 F2- | F2 D2 G4 E4 ^F3 F | %71
w: im- ple- bit ru- i-|nas, im- ple- bit ru\-|* i\- * nas: con\-|* quas- sa- bit ca- pi-|
 G2 B4 G2 c4 A4 | (Bc d4) ^c2 d4 A4 | B8 A4 A4 | (G2 F2 E2 D2 E8) | (F6 G2 A8) | z4 G4 F8 | %77
w: ta, con- quas- sa- bit|ca\- * * pi- ta in|ter- ra mul-|to\- * * * *|rum, * *|in ter-|
 G4 B4 A8 | !fermata!=B16 || x20 | x18 | G12 ^F4 | ^F16 | G16 | A8 z4 (d4- | d4 c4) B8- | %86
w: ra mul- to-|rum.|||Glo- ri-|a|Pa-|tri, et|* * Fi\-|
 B4 A2 G2 A4 A4 | B8 z4 d4- | d4 c4 B4 c4 |[M:4/2] (c2 B2 A2 G2 F4) (G4- | G2 F2 E2 D2 E8 | %91
w: * * * * li-|o, et|* Spi- ri- tu-|i * * * * san\-||
 F6 G2 A2 B2 A4- | A2 G2 G8 ^F4) | !fermata!G16 || x20 | x18 | %96
w: ||cto.|||
V:3
[K:C] z28 |[K:F][K:treble-8] g8 g4 g4 | (d6 e2 f8- | f4) c4 d8- | d4 G4 g8 | g4 g4 f8- | f8 _e8 | %7
w: |Se- de a|dex\- * *|* tris me\-|* is, se-|de a dex\-|* tris|
 d16 | !fermata!d16 || z20 | z8 d4 d2 d2 | =B4 c4 d8 | G4 g4 g2 (g2 f4- | f4) e4 (d6 e2) | %14
w: me-|is.||Vir- gam vir-|tu- tis tu-|ae, vir- gam vir- tu\-|* tis tu\- *|
[M:4/2][K:treble-8] (^c4 d8 c4) | d12 f4 | f4 g4 f6 f2 | f4 f4 f8 | f8 z4 f4- | f2 f2 f4 g4 d4 | %20
w: |ae e-|mit- tet Do- mi-|nus ex Si-|on: do\-|* mi- na- re in|
 f6 f2 f4 z2 f2 | f2 f2 _e4 d2 d2 f3 (e/d/ | c2 BA GABc d4) d4 | z4 f6 f2 f4 | g4 d4 f6 f2 | %25
w: me- di- o i-|i- ni- mi- co- rum tu- o\- *|* * * * * * * * rum,|do- mi- na-|re in me- di-|
 f8 z2 A2 B2 c2 | d4 c4 z2 c2 d2 e2 | f4 c4 z4 f4- | f4 (g6 fe d4) | d8- !fermata!d16 || %30
w: o i- ni- mi-|co- rum, i- ni- mi-|co- rum tu\-|* o\- * * *|rum. *|
[M:4/2] z20 | z18 |[M:4/2][K:treble-8] d8 f4 f4 | (g8 d6 c2 | B6 AG A4) A4 | G4 g4 f4 d4 | %36
w: ||Ju- ra- vit|Do\- * *|* * * * mi-|nus, ju- ra- vit|
 e6 e2 d8 | z4 e6 e2 e2 e2 | f8 d4 (d4- | d4 c4 d8- | d4 e4) f8 | z4 d2 d2 d2 d2 e4- | %42
w: Do- mi- nus|et non poe- ni-|te- bit e\-||* * um,|et non poe- ni- te\-|
 e2 c2 (f8 e4) | f16 ||[M:3/1] f8 f8 g8 | f16 f8 | e8 f8 f8 | e16 e8 | d16 d8 | d24 || x24 | %51
w: * bit e\- *|um:|Tu es sa-|cer- dos,|tu es sa-|cer- dos|in ae-|ter-||
[M:4/2][K:treble-8] d4 d4 (B2 c2 d2 e2 | f4) d4 _e4 f4 | (B2 A2 G2 A2 B2 c2 d2 e2 | f4) _e4 d6 d2 | %55
w: num se- cun\- * * *|* dum or- di-|nem * * * * * * *|* Mel- chi- se-|
 G4 d4 f6 f2 | e4 f4 d8 | z8 z4 f4 | (g4 f2 e2 d8) | d8 d8- | !fermata!d16 ||[M:4/2] z20 | z18 | %63
w: dech, se- cun- dum|or- di- nem|Mel-|chi\- * * *|se- dech.||||
 d12 d4 | _e8 d4 z2 d2 | d4 ^c4 d8- | d4 d4 d4 ^f4 |[M:4/2][K:treble-8] g4 c2 A4 (f4 e2) | %68
w: Ju- di-|ca- bit in|na- ti- o\-|* ni- bus, im-|ple- bit ru- i\- *|
 f4 z2 c2 _e4 d2 g2 | f8 f8 | z16 | d4 B2 _e4 c2 d4- | d4 G4 A4 z2 d2 | (B3 c d3 e f4) c2 f2 | %74
w: nas, im- ple- bit ru-|i- nas:||con- quas- sa- bit ca\-|* pi- ta, in|ter\- * * * * ra mul-|
 (e2 d2 d8 ^c4) | d16 | z8 z4 d4 | _e4 d2 d2 d8 | !fermata!d16 || z20 | z18 | z8 d8- | %82
w: to\- * * *|rum,|in|ter- ra mul- to-|rum.|||Glo\-|
 d4 A4 A4 (B4- | B4 A2 G2 g8- | g4 ^f2 e2 f8) | g8 d8 | g8 =f8 | f8 z4 B4- | B4 c4 d4 e4 | %89
w: * ri- a Pa\-|||tri, et|Fi- li-|o, et|* Spi- ri- tu-|
[M:4/2][K:treble-8] (f6 e2 d4) (e4- | e2 d2 d8 ^c4) | d4 f8 f4 | d4 d2 d2 d8 | !fermata!d16 || %94
w: i * * san\-||cto, et Spi-|ri- tu- i san-|cto.|
 z20 | z18 | %96
w: ||
V:4
[K:C] z28 |[K:F][K:bass] z16 | z16 | z16 | G,8 G,8- | G,4 G,4 (D,6 E,2 | F,8) C,8 | D,16 | %8
w: ||||Se- de|* a dex\- *|* tris|me-|
 !fermata!G,16 || z20 | z16 | z16 | z16 | A,4 A,2 A,2 ^F,4 G,4 |[M:4/2] A,8 A,8 | z4 D,4 G,4 F,4 | %16
w: is.|||||Vir- gam vir- tu- tis|tu- ae|e- mit- tet|
 B,6 B,2 B,4 A,4 | (B,6 A,G, F,8) | B,8 z4 B,4- | B,2 B,2 F,4 _E,4 G,4 | F,6 F,2 F,8 | z16 | z16 | %23
w: Do- mi- nus ex|Si\- * * *|on: do\-|* mi- na- re in|me- di- o,|||
 z4 B,6 B,2 F,4 | _E,4 G,4 F,6 F,2 | F,8 z8 | z16 | z2 F,2 F,2 F,2 _E,4 D,2 D,2 | %28
w: do- mi- na-|re in me- di-|o||i- ni- mi- co- rum tu-|
 (F,3 _E,/D,/ C,D,!courtesy!_E,F, G,6 F,=E, | D,8) !fermata!G,16 ||[M:4/2] z20 | z18 |[M:4/2] z16 | %33
w: o\- * * * * * * * * *|* rum.||||
 z16 | z16 | z8 D8 | C4 A,4 B,6 B,2 | A,8 z4 A,4- | A,2 A,2 A,2 A,2 B,4 G,4 | (A,6 G,2 ^F,8 | %40
w: ||Ju-|ra- vit Do- mi-|nus et|* non poe- ni- te- bit|e\- * *|
 G,8) D,4 D4- | D2 D2 D2 D2 B,4 C4 | (A,6 B,2 C8) | F,16 ||[M:3/1] z16 z8 | z16 z8 | C8 A,8 B,8 | %47
w: * um, et|* non poe- ni- te- bit|e\- * *|um:|||Tu es sa-|
 C16 C,8 | G,16 ^F,8 | G,24 || x24 |[M:4/2] D,8 z8 | z16 | z16 | z16 | z4 G,4 (F,2 G,2 A,2 B,2) | %56
w: cer- dos|in ae-|ter-||num||||se- cun\- * * *|
 C4 D4 (B,8 | C6) C2 F,8 | z4 F,4 (G,6 F,E, | D,12) D,4 | !fermata!G,16 ||[M:4/2] z20 | z18 | %63
w: * dum or\-|* di- nem|Mel- chi\- * *|* se-|dech.|||
 G,12 D,4 | C,8 D,8 | z4 A,4 G,4 ^F,4 | G,6 G,2 D,4 z2 D,2 |[M:4/2] G,4 F,2 F,2 (A,3 B, C4) | %68
w: Ju- di-|ca- bit|in na- ti-|o- ni- bus, im-|ple- bit ru- i\- * *|
 F,6 F,2 C4 B,2 B,,2 | (D,3 E, F,4) B,,8 | B,4 G,2 C4 A,2 D3 D | G,8 z2 F,4 D,2 | G,4 E,4 D,6 D,2 | %73
w: nas, im- ple- bit ru-|i\- * * nas:|con- quas- sa- bit ca- pi-|ta, con- quas-|sa- bit ca- pi-|
 G,4 G,4 F,8 | G,4 B,4 A,8 | D,8 z4 D4 | (_E8 D8) | C4 G,4 D,8 | !fermata!G,16 || z20 | z18 | %81
w: ta in ter-|ra mul- to-|rum, in|ter\- *|ra mul- to-|rum.|||
 G,12 D,4 | D,16 | _E,16 | D,16 | G,16 | _E,8 F,8 | B,16 | z16 |[M:4/2] z4 D8 C4 | %90
w: Glo- ri-|a|Pa-|tri,|et|Fi- li-|o,||et Spi-|
 B,4 B,2 B,2 (A,8 | D,6 E,2 F,2 G,2 A,2 F,2 | G,8 D,8) | !fermata!G,16 || z20 | z18 | %96
w: ri- tu- i san\-|||cto.|||

